X: 21141
Q: "Slow and Solemn."
M: C|
L: 1/8
K: Am
E2A2 A2B2 | c4 c2dc | B3A G2^F2 | G6 AG |\
E2A2 A2B2 | c2B2 c2d2 | e3d c2d2 | e6 g>f |
e3d c2d2 | e3f g2fe | d3c B2c2 | d6 cd |\
e3c {e}d2cB | {d}c2BA e3AG | E2A2 A2^G2 | A6 |]


